dist/assets/icons/duotone-light/ring.svg

<svg xmlns="http://www.w3.org/2000/svg" viewBox="0 0 512 512"><!--! Font Awesome Pro 7.2.0 by @fontawesome - https://fontawesome.com License - https://fontawesome.com/license (Commercial License) Copyright 2026 Fonticons, Inc. --><path opacity=".4" fill="currentColor" d="M32 192c0 14.3 8.7 30 27.6 44.8 6.3-3.7 13-7.2 19.9-10.4 46-21.5 108.4-34.3 176.5-34.3s130.5 12.8 176.5 34.3c6.9 3.2 13.6 6.7 19.9 10.4 18.9-14.8 27.6-30.4 27.6-44.8 0-21-18.9-45-61.1-64.7-40.9-19.1-98.5-31.3-162.9-31.3S133.9 108.2 93.1 127.3C50.9 147 32 171 32 192zm0 63.3L32 320c0 21 18.9 45 61.1 64.7 40.9 19.1 98.5 31.3 162.9 31.3s122.1-12.2 162.9-31.3C461.1 365 480 341 480 320l0-64.7c-13.2 11.8-29.5 22-47.5 30.4-46 21.5-108.4 34.3-176.5 34.3S125.5 307.2 79.5 285.7c-18-8.4-34.4-18.6-47.5-30.4z"/><path fill="currentColor" d="M93.1 127.3C133.9 108.2 191.5 96 256 96s122.1 12.2 162.9 31.3c42.2 19.7 61.1 43.7 61.1 64.7 0 14.3-8.7 30-27.6 44.8-6.3-3.7-13-7.2-19.9-10.4-46-21.5-108.4-34.3-176.5-34.3S125.5 204.8 79.5 226.3C72.6 229.5 66 233 59.6 236.8 40.7 222 32 206.3 32 192 32 171 50.9 147 93.1 127.3zM480 255.3l0 64.7c0 21-18.9 45-61.1 64.7-40.9 19.1-98.5 31.3-162.9 31.3S133.9 403.8 93.1 384.7C50.9 365 32 341 32 320l0-64.7c13.2 11.8 29.5 22 47.5 30.4 46 21.5 108.4 34.3 176.5 34.3s130.5-12.8 176.5-34.3c18-8.4 34.4-18.6 47.5-30.4zM0 192L0 320c0 40.8 34.8 72.8 79.5 93.7 46 21.5 108.4 34.3 176.5 34.3s130.5-12.8 176.5-34.3C477.2 392.8 512 360.8 512 320l0-128c0-40.8-34.8-72.8-79.5-93.7-46-21.5-108.4-34.3-176.5-34.3S125.5 76.8 79.5 98.3C34.8 119.2 0 151.2 0 192zm93.1 64.7l-1.5-.7 1.5-.7C133.9 236.2 191.5 224 256 224s122.1 12.2 162.9 31.3l1.5 .7-1.5 .7C378.1 275.8 320.5 288 256 288S133.9 275.8 93.1 256.7z"/></svg>

<svg xmlns="http://www.w3.org/2000/svg" viewBox="0 0 512 512"><!--! Font Awesome Pro 6.7.2 by @fontawesome - https://fontawesome.com License - https://fontawesome.com/license (Commercial License) Copyright 2024 Fonticons, Inc. --><defs><style>.fa-secondary{opacity:.4}</style></defs><path class="fa-secondary" d="M32 192c0 14.3 8.7 30 27.6 44.8c6.3-3.7 13-7.2 19.9-10.4C125.5 204.8 187.9 192 256 192s130.5 12.8 176.5 34.3c6.9 3.2 13.6 6.7 19.9 10.4C471.3 222 480 206.3 480 192c0-21-18.9-45-61.1-64.7C378.1 108.2 320.5 96 256 96s-122.1 12.2-162.9 31.3C50.9 147 32 171 32 192zm0 63.3L32 320c0 21 18.9 45 61.1 64.7C133.9 403.8 191.5 416 256 416s122.1-12.2 162.9-31.3C461.1 365 480 341 480 320l0-64.7c-13.2 11.8-29.5 22-47.5 30.4C386.5 307.2 324.1 320 256 320s-130.5-12.8-176.5-34.3c-18-8.4-34.4-18.6-47.5-30.4z"/><path class="fa-primary" d="M93.1 127.3C133.9 108.2 191.5 96 256 96s122.1 12.2 162.9 31.3C461.1 147 480 171 480 192c0 14.3-8.7 30-27.6 44.8c-6.3-3.7-13-7.2-19.9-10.4C386.5 204.8 324.1 192 256 192s-130.5 12.8-176.5 34.3c-6.9 3.2-13.6 6.7-19.9 10.4C40.7 222 32 206.3 32 192c0-21 18.9-45 61.1-64.7zM480 255.3l0 64.7c0 21-18.9 45-61.1 64.7C378.1 403.8 320.5 416 256 416s-122.1-12.2-162.9-31.3C50.9 365 32 341 32 320l0-64.7c13.2 11.8 29.5 22 47.5 30.4C125.5 307.2 187.9 320 256 320s130.5-12.8 176.5-34.3c18-8.4 34.4-18.6 47.5-30.4zM0 192L0 320c0 40.8 34.8 72.8 79.5 93.7C125.5 435.2 187.9 448 256 448s130.5-12.8 176.5-34.3C477.2 392.8 512 360.8 512 320l0-128c0-40.8-34.8-72.8-79.5-93.7C386.5 76.8 324.1 64 256 64S125.5 76.8 79.5 98.3C34.8 119.2 0 151.2 0 192zm93.1 64.7l-1.5-.7 1.5-.7C133.9 236.2 191.5 224 256 224s122.1 12.2 162.9 31.3l1.5 .7-1.5 .7C378.1 275.8 320.5 288 256 288s-122.1-12.2-162.9-31.3z"/></svg>
